app/src/images/img/main-page/about5.svg

<svg width="110" height="126" viewBox="0 0 110 126" fill="none" xmlns="http://www.w3.org/2000/svg">
<path d="M54.5715 125.948L0 94.5063V31.4419L54.5715 0L109.143 31.4419V94.5063L54.5715 125.948ZM1.44558 93.6028L54.5715 124.322L107.697 93.6028V32.3454L54.5715 1.62629L1.44558 32.3454V93.6028Z" fill="url(#paint0_angular_703:2160)"/>
<path d="M56.579 96.9382L55.7273 96.7253C55.8338 96.5123 62.1154 74.1541 52.5333 55.6288C44.1223 39.3392 24.9582 43.2785 24.7453 43.2785L24.5323 42.4268C24.7453 42.4268 44.5482 38.381 53.2786 55.2029C63.0736 74.0476 56.6855 96.7252 56.579 96.9382Z" fill="#78859D" stroke="#78859D" stroke-width="2"/>
<path d="M56.792 98.2158C56.6855 98.0029 50.2975 75.3253 59.986 56.4805C68.7164 39.6586 88.5193 43.5979 88.7323 43.7044L88.5193 44.5562C88.3064 44.5562 69.1423 40.6169 60.7313 56.9064C51.2557 75.4318 57.5373 97.6835 57.5373 98.0029L56.792 98.2158Z" fill="#78859D" stroke="#78859D" stroke-width="2"/>
<path d="M56.8984 98.5351C56.8984 98.4286 56.4726 85.2267 60.7313 76.2834C68.8228 59.1421 89.2646 63.4008 89.4775 63.5073L89.2646 64.359C89.0517 64.359 69.2487 60.2068 61.4766 76.7092C57.3243 85.4396 57.7502 98.4286 57.7502 98.5351H56.8984Z" fill="#78859D" stroke="#78859D" stroke-width="2"/>
<path d="M56.579 98.5351H55.7273C55.7273 98.4287 56.1532 85.4396 52.0009 76.7093C44.2288 60.2068 24.4259 64.3591 24.2129 64.3591L24 63.5073C24.2129 63.5073 44.6547 59.1422 52.7462 76.2834C57.0049 85.2267 56.579 98.3222 56.579 98.5351Z" fill="#78859D" stroke="#78859D" stroke-width="2"/>
<defs>
<radialGradient id="paint0_angular_703:2160" cx="0" cy="0" r="1" gradientUnits="userSpaceOnUse" gradientTransform="translate(138.11 101.701) rotate(149.443) scale(96.7104 138.926)">
<stop offset="0.0112334" stop-color="#E8EACD"/>
<stop offset="0.0701059" stop-color="#D1CDD5"/>
<stop offset="0.178522" stop-color="#B8E4D8"/>
<stop offset="0.240926" stop-color="#B9DAE5"/>
<stop offset="0.311261" stop-color="#BBCDF6"/>
<stop offset="0.800112" stop-color="#DCCFDF"/>
</radialGradient>
</defs>
</svg>

<svg width="110" height="126" fill="none" xmlns="http://www.w3.org/2000/svg"><path d="M54.572 125.948L0 94.506V31.442L54.572 0l54.571 31.442v63.064l-54.572 31.442zM1.446 93.603l53.126 30.719 53.125-30.72V32.346L54.571 1.626 1.447 32.346v61.257z" fill="url(#paint0_angular_703:2160)"/><path d="M56.579 96.938l-.852-.213c.107-.213 6.388-22.57-3.194-41.096-8.41-16.29-27.575-12.35-27.788-12.35l-.213-.852c.213 0 20.016-4.046 28.747 12.776 9.795 18.845 3.406 41.522 3.3 41.735z" fill="#78859D" stroke="#78859D" stroke-width="2"/><path d="M56.792 98.216c-.107-.213-6.495-22.89 3.194-41.735 8.73-16.822 28.533-12.883 28.746-12.777l-.213.852c-.213 0-19.377-3.94-27.788 12.35-9.475 18.526-3.194 40.777-3.194 41.097l-.745.213z" fill="#78859D" stroke="#78859D" stroke-width="2"/><path d="M56.898 98.535c0-.106-.425-13.308 3.833-22.252 8.092-17.14 28.534-12.882 28.747-12.776l-.213.852c-.213 0-20.016-4.152-27.788 12.35-4.153 8.73-3.727 21.72-3.727 21.826h-.852z" fill="#78859D" stroke="#78859D" stroke-width="2"/><path d="M56.579 98.535h-.852c0-.106.426-13.095-3.726-21.826-7.772-16.502-27.575-12.35-27.788-12.35L24 63.507c.213 0 20.655-4.365 28.746 12.776 4.259 8.944 3.833 22.04 3.833 22.252z" fill="#78859D" stroke="#78859D" stroke-width="2"/><defs><radialGradient id="paint0_angular_703:2160" cx="0" cy="0" r="1" gradientUnits="userSpaceOnUse" gradientTransform="matrix(-83.27963 49.16711 -70.62932 -119.63249 138.11 101.701)"><stop offset=".011" stop-color="#E8EACD"/><stop offset=".07" stop-color="#D1CDD5"/><stop offset=".179" stop-color="#B8E4D8"/><stop offset=".241" stop-color="#B9DAE5"/><stop offset=".311" stop-color="#BBCDF6"/><stop offset=".8" stop-color="#DCCFDF"/></radialGradient></defs></svg>
